X:1

T:Bashful Maid, The

M:6/8

L:1/8
R:Jig

S: O’Neill – Dance Music of Ireland: 1001 Gems (1907), No. 247

Z:AK/Fiddler’s Companion

K:D

A|FAA AFA|AFA d2B|GBB FAA|EFE E2A|FAA AFA|AFA d2B|ABc dcB|AFD D2:|

|:d|ecA ABA|ecA d2A|GBB FAA|EFE E2d|ecA ABA|edc d2B|ABc dcB AFD D2:|

           

BASHFUL SWAIN, THE. English, Country Dance (2/2 or cut time). D Minor. Standard tuning. AABB. The melody was first published in Playford's Dancing Master (3rd vol.) of 1728, then published by John Young. Barnes (English Country Dance Tunes), 1989. Kidson (Old English Country Dances), 1890; pg. 5. Raven (English Country Dance Tunes), 1984; pg. 17.

